dist/assets/img/advantages/shield 5b.svg

<svg width="36" height="36" viewBox="0 0 36 36" fill="none" xmlns="http://www.w3.org/2000/svg">
<g clip-path="url(#clip0)">
<path d="M34.456 27.0266C31.234 23.8046 31.4453 24.0087 31.3546 23.9418L22.8259 17.6448L26.1345 14.3366C28.7945 15.2845 31.8062 14.6291 33.8331 12.6022C36.0414 10.394 36.621 7.01796 35.2755 4.20145C34.9619 3.54522 34.0922 3.39658 33.5786 3.91036L30.8511 6.63785C30.44 7.0489 29.7713 7.04897 29.36 6.63785C28.9479 6.22575 28.9479 5.5589 29.36 5.1468L32.0875 2.41924C32.6018 1.90504 32.4522 1.03556 31.7964 0.722388C28.9799 -0.623112 25.604 -0.0434559 23.3956 2.16471C21.3683 4.1921 20.7137 7.20393 21.6613 9.86329L17.8456 13.6787C17.0687 13.0744 18.0939 14.1065 10.7768 6.34781L11.5438 5.58077C12.029 5.09569 11.9279 4.28343 11.3408 3.93117L5.6937 0.54288C4.21341 -0.345307 2.32714 -0.113136 1.10644 1.10756C-0.114181 2.32818 -0.346423 4.2146 0.541764 5.69482L3.93005 11.342C4.28288 11.9302 5.09548 12.0292 5.57966 11.545L6.30303 10.8217C13.5822 18.5402 12.6241 17.4918 13.1996 18.2317C13.2132 18.2492 13.2284 18.2647 13.2429 18.2811L9.85937 21.6643C7.20015 20.7167 4.1881 21.3713 2.16085 23.3987C-0.0473839 25.6069 -0.62704 28.9829 0.71853 31.7995C1.03219 32.4558 1.90168 32.6043 2.41545 32.0906L5.14294 29.363C5.5542 28.9519 6.22294 28.952 6.63406 29.363C7.04616 29.7751 7.04616 30.4419 6.63406 30.854L3.90643 33.5816C3.39216 34.0958 3.54179 34.9653 4.19752 35.2785C5.20988 35.7621 6.29424 35.997 7.37101 35.997C9.28983 35.997 11.1838 35.2507 12.5983 33.8362C14.6257 31.8088 15.2802 28.797 14.3326 26.1375L17.2222 23.2482L23.95 31.4241C24.0012 31.4861 23.8323 31.3133 26.8413 34.3223C27.9367 35.4177 29.393 35.9856 30.8251 35.9856C31.8758 35.9856 32.9136 35.6796 33.7852 35.0519C36.4452 33.1361 36.7588 29.3292 34.456 27.0266ZM7.09229 8.58508C6.68356 8.15175 5.99837 8.14415 5.57966 8.56293L5.04338 9.09914L2.34992 4.6099C1.96053 3.96091 2.06227 3.13383 2.59749 2.59861C3.13271 2.06332 3.9598 1.96165 4.60871 2.35104L9.09795 5.04457L8.56168 5.5807C8.15844 5.98394 8.14887 6.63476 8.54016 7.0496C16.9476 15.9645 15.6251 14.623 16.3428 15.1812L14.7427 16.7812C14.1897 16.0701 15.4737 17.4724 7.09229 8.58508ZM12.3437 25.1442C12.0277 25.4602 11.9453 25.941 12.1379 26.3443C13.099 28.356 12.6847 30.7676 11.1073 32.345C10.0966 33.3557 8.74379 33.8889 7.37283 33.8888C7.12625 33.8888 6.87917 33.8716 6.63329 33.8367L8.12504 32.3449C9.3612 31.1089 9.36141 29.108 8.12504 27.8717C6.89183 26.6385 4.88504 26.6385 3.65183 27.8717L2.16008 29.3635C1.9317 27.7509 2.45947 26.082 3.65183 24.8896C5.22936 23.312 7.6408 22.898 9.65258 23.8589C10.0557 24.0515 10.5365 23.9692 10.8526 23.6531L23.6502 10.8565C23.9662 10.5405 24.0486 10.0597 23.8561 9.65643C22.895 7.64472 23.3092 5.23315 24.8867 3.65568C26.0793 2.46318 27.748 1.93549 29.3605 2.16393L27.8688 3.65568C27.2713 4.25306 26.9423 5.04745 26.9423 5.89233C26.9423 6.7372 27.2713 7.53145 27.8688 8.12897C29.102 9.36225 31.1088 9.36218 32.342 8.12897L33.8337 6.63722C34.0621 8.24983 33.5344 9.9187 32.342 11.1111C30.7645 12.6886 28.353 13.1028 26.3412 12.1418C25.9381 11.9492 25.4573 12.0316 25.1412 12.3476L12.3437 25.1442ZM18.7159 21.7546L21.3181 19.1526L23.9702 21.1107L20.8015 24.2793C18.6472 21.6613 18.7816 21.8191 18.7159 21.7546ZM32.5528 33.3409C31.323 34.2265 29.5085 34.0076 28.3322 32.8313L25.5457 30.0448L22.1476 25.9153L25.6856 22.3773L30.0386 25.5912L32.9649 28.5176C34.3025 29.8551 34.2165 32.1426 32.5528 33.3409Z" fill="#051223"/>
<path d="M31.4558 29.827L27.2383 25.6096C26.8267 25.1978 26.159 25.1978 25.7473 25.6096C25.3355 26.0213 25.3355 26.6889 25.7473 27.1006L29.9647 31.318C30.3764 31.7297 31.044 31.7298 31.4558 31.318C31.8675 30.9063 31.8675 30.2388 31.4558 29.827Z" fill="#051223"/>
</g>
<defs>
<clipPath id="clip0">
<rect width="36" height="36" fill="white"/>
</clipPath>
</defs>
</svg>

<svg width="36" height="36" fill="none" xmlns="http://www.w3.org/2000/svg"><g clip-path="url(#clip0)" fill="#051223"><path d="M34.456 27.027c-3.222-3.222-3.01-3.018-3.101-3.085l-8.53-6.297 3.31-3.308a7.396 7.396 0 007.698-1.735 7.393 7.393 0 001.443-8.4 1.055 1.055 0 00-1.697-.292L30.85 6.638a1.056 1.056 0 01-1.491-1.491l2.727-2.728a1.055 1.055 0 00-.29-1.697 7.393 7.393 0 00-8.401 1.443 7.396 7.396 0 00-1.735 7.698l-3.815 3.816c-.777-.605.248.428-7.07-7.331l.768-.767a1.055 1.055 0 00-.203-1.65L5.694.543a3.75 3.75 0 00-4.588.565 3.75 3.75 0 00-.564 4.587l3.388 5.647a1.055 1.055 0 001.65.203l.723-.723c7.28 7.718 6.321 6.67 6.897 7.41.013.017.028.033.043.05l-3.384 3.382A7.396 7.396 0 002.161 23.4a7.393 7.393 0 00-1.442 8.4 1.055 1.055 0 001.696.292l2.728-2.728a1.054 1.054 0 111.491 1.491l-2.728 2.728a1.055 1.055 0 00.292 1.697 7.39 7.39 0 008.4-1.442 7.396 7.396 0 001.735-7.7l2.89-2.889 6.727 8.176c.051.062-.118-.11 2.891 2.898a5.659 5.659 0 003.984 1.664c1.05 0 2.089-.306 2.96-.934 2.66-1.916 2.974-5.723.671-8.025zM7.092 8.585a1.055 1.055 0 00-1.512-.022l-.537.536L2.35 4.61a1.644 1.644 0 01.247-2.01 1.644 1.644 0 012.013-.25l4.489 2.694-.536.536a1.054 1.054 0 00-.023 1.47c8.408 8.915 7.085 7.573 7.803 8.131l-1.6 1.6c-.553-.71.73.691-7.65-8.196zm5.252 16.56a1.054 1.054 0 00-.206 1.2 5.28 5.28 0 01-1.03 6 5.28 5.28 0 01-4.475 1.492l1.492-1.492a3.161 3.161 0 000-4.473 3.167 3.167 0 00-4.473 0L2.16 29.363a5.284 5.284 0 011.492-4.473 5.281 5.281 0 016-1.031c.404.192.885.11 1.2-.206L23.65 10.857c.316-.316.399-.797.206-1.2a5.28 5.28 0 011.03-6.001 5.284 5.284 0 014.474-1.492l-1.49 1.492a3.142 3.142 0 00-.927 2.236c0 .845.33 1.64.927 2.237a3.167 3.167 0 004.473 0l1.492-1.492a5.284 5.284 0 01-1.492 4.474 5.281 5.281 0 01-6 1.03 1.054 1.054 0 00-1.2.207l-12.8 12.796zm6.372-3.39l2.602-2.602 2.652 1.958-3.168 3.168c-2.155-2.618-2.02-2.46-2.086-2.524zM32.553 33.34c-1.23.886-3.044.667-4.22-.51l-2.787-2.786-3.398-4.13 3.538-3.538 4.353 3.214 2.926 2.927a3.164 3.164 0 01-.412 4.823z"/><path d="M31.456 29.827l-4.218-4.217a1.054 1.054 0 10-1.49 1.49l4.217 4.218a1.054 1.054 0 001.49-1.491z"/></g><defs><clipPath id="clip0"><path fill="#fff" d="M0 0h36v36H0z"/></clipPath></defs></svg>
